X: 14464
T: Gamekeeper's Cottage, The
R: waltz
M: 3/4
K: Gmajor
z4G/F/D/F/|"G"G2G2 "Am"B/A/G/A/|"G/B"B2B2 "C9"d/c/B/c/|"G"d2g2 g/f/d|"C"e2e2 G/F/D/F/|
"G"G2 G2"Am"B/A/G/A/|"G/B"B2B2"C9" d/c/B/c/|[M:2/4]"D"dG B/A/F|1 [M:3/4]"G"G2G4:|2 "G"G2G2B>c||
[M:2/4]"G"dg "G/B"a/g/d|"C"e2e2|[M:3/4]"Em"d/c/B/c/ dG B/A/D|"C"E2E2B>c|
[M:2/4]"G"dg "G/B"a/g/d|"C"e2e2|[M:3/4]"Em"d/c/B/c/ dG"D/F#" B/A/D|"G"G2G2"Am"B>c|
[M:2/4]"G"dg "G/B"a/g/d|"C"e2e2|[M:3/4]"Em"d/c/B/c/ dG B/A/D|"C"E2E2G/F/D/F/|
"G"G2G2"Am"B/A/G/A/|"G/B"B2B2"C9"d/c/B/c/|[M:2/4]"D"dG B/A/F|[M:3/4]"G"G2G4||

